**kern	**dynam	**kern	**dynam	**kern	**dynam	**kern	**dynam	**mxhm
*part4	*part4	*part3	*part3	*part2	*part2	*part1	*part1	*part1
*staff4	*	*staff3	*	*staff2	*	*staff1	*	*
*I"Cello	*	*I"Viola	*	*I"2nd Violin	*	*I"1st Violin	*	*
*clefF4	*	*clefC3	*	*clefG2	*	*clefG2	*	*
*k[b-e-a-]	*	*k[b-e-a-]	*	*k[b-e-a-]	*	*k[b-e-a-]	*	*
*M2/4	*	*M2/4	*	*M2/4	*	*M2/4	*	*
=1	=1	=1	=1	=1	=1	=1	=1	=1
!LO:TX:a:i:t=mezza voce	!	!	!	!	!	!LO:TX:a:B:t=Allegretto ma non troppo.	!	!
8.E-	.	2r	.	2r	.	2r	.	.D.I
16r	.	.	.	.	.	.	.	.
8.D	.	.	.	.	.	.	.	.
16r	.	.	.	.	.	.	.	.
=2	=2	=2	=2	=2	=2	=2	=2	=2
8.C	.	2r	.	2r	.	2r	.	.
16r	.	.	.	.	.	.	.	.
8.BB-	.	.	.	.	.	.	.	.
16r	.	.	.	.	.	.	.	.
=3	=3	=3	=3	=3	=3	=3	=3	=3
8.AA-	.	2r	.	2r	.	2r	.	.
16r	.	.	.	.	.	.	.	.
8GG'L	.	.	.	.	.	.	.	.
8AAX'J	.	.	.	.	.	.	.	.
=4	=4	=4	=4	=4	=4	=4	=4	=4
2BB-	.	2r	.	2r	.	2r	.	V
=5	=5	=5	=5	=5	=5	=5	=5	=5
!	!	!	!LO:DY:a	!	!LO:DY:a	!LO:TX:a:i:t=mezza voce	!	!
4r	p	4r	p p	(8e-L	p	(4e-	.	I
.	.	.	.	8B-J	.	.	.	.
[4E-	.	(8d-L	.	8e-L	.	[4g)	.	V7/IV
.	.	8B-J	.	8d-J	.	.	.	.
=6	=6	=6	=6	=6	=6	=6	=6	=6
2E-]	.	8d-L	.	8e-L	.	4g]	.	.
.	.	8B-J	.	8d-J	.	.	.	.
.	.	8d-L	.	8e-L	.	(8f'L	.	.
.	.	8B-J)	.	8d-J)	.	8g'J)	.	.
=7	=7	=7	=7	=7	=7	=7	=7	=7
[2AA-	<	(8c-XL	<	(8e-L	<	(4.a-	<	iv[iv
.	.	8A-J	.	8c-XJ	.	.	.	.
.	.	8c-L	.	8e-L	.	.	.	.
.	.	8B-J	.	8d-J	.	8b-	.	viio6/iv
=8	=8	=8	=8	=8	=8	=8	=8	=8
4AA-]	.	8A-L	.	8c-XL	.	4cc-X	.	iv]
.	.	8FJ	.	8dXJ	.	.	.	.
8EE-	[ >	8GL	[ >	8e-L	[ >	8b-L	[ >	I
8r	]]	8B-J)	]]	8gJ)	]]	8b-J)	]]	.
=9	=9	=9	=9	=9	=9	=9	=9	=9
8E-	.	(8e-L	.	8gL	.	8b-L	.	.
8r	.	8B-J	.	(8gJ	.	(8ee-J	.	.
4r	.	8fL	.	8a-L	.	8ddL	.	viio6
.	.	8e-J)	.	8gJ)	.	8ee-J	.	I
=10	=10	=10	=10	=10	=10	=10	=10	=10
8BB-	.	(8dL	.	(8fL	.	8.ffL	.	V7
8r	.	8fJ	.	8a-J	.	.	.	.
.	.	.	.	.	.	16ddJk)	.	.
8r	.	8eXL	.	8gL	.	8b-L	.	#io
(8D	.	8fJ)	.	8a-J)	.	8b-J	.	V65
=11	=11	=11	=11	=11	=11	=11	=11	=11
8E-L	<	4e-	<	4g	<	4b-	<	I
8GJ	.	.	.	.	.	.	.	.
8E-L	.	[4e-	[[	[4g-	[[	[4cc	[[	#viio43/V
8AXJ)	[[	.	.	.	.	.	.	.
=12	=12	=12	=12	=12	=12	=12	=12	=12
!	!	!	!	!	!LO:DY:a	!	!	!
8BB-L	p	4e-]	p	4g-]	p p	(4cc]	.	.
8AXJ	.	.	.	.	.	.	.	.
8B-	.	8dL	.	8f	.	8b-)	.	V\\
8r	.	(8B-J	.	8r	.	8r	.	.
=13	=13	=13	=13	=13	=13	=13	=13	=13
4BB-	.	8c-XL	.	2f	.	2a-	.	V
.	.	8B-J	.	.	.	.	.	.
4r	.	8dL	.	.	.	.	.	.
.	.	8B-J)	.	.	.	.	.	.
=14	=14	=14	=14	=14	=14	=14	=14	=14
4BB-	.	(8c-XL	.	4.e-	.	(4.g	.	I64
.	.	8B-J	.	.	.	.	.	.
8r	.	8e-L	.	.	.	.	.	.
(8G	.	8B-J	.	8e-	.	8ee-	.	I6
=15	=15	=15	=15	=15	=15	=15	=15	=15
4F	.	8A-L	.	8r	.	4dd	.	V43
.	.	8B-J	.	8a-	.	.	.	.
4E-)	.	8GL	.	8r	.	4ee-T)	.	I
.	.	8B-J)	.	8g	.	.	.	.
=16	=16	=16	=16	=16	=16	=16	=16	=16
8D	.	8FL	.	4f	.	(8ggL	.	V6
8r	.	8B-J	.	.	.	[8ffJ)	.	.
4r	.	8B-L	.	4r	.	(16ffLL]	.	.
.	.	.	.	.	.	32ee-L	.	.
.	.	.	.	.	.	32ddJ)	.	.
.	.	(8B-J	.	.	.	16cc'	.	.
.	.	.	.	.	.	16b-'JJ	.	.
=17	=17	=17	=17	=17	=17	=17	=17	=17
2F	.	8A-L	.	4d	.	(8cc-XL	.	V43(b9)
.	.	8B-J	.	.	.	8b-J	.	.
.	.	8A-L	.	8cc-XL	.	8ddL	.	.
.	.	8B-J)	.	8b-J	.	8b-J	.	.
=18	=18	=18	=18	=18	=18	=18	=18	=18
!LO:TX:b:i:t=cresc.	!	!LO:TX:b:i:t=cresc.	!	!LO:TX:b:i:t=cresc.	!	!LO:TX:b:i:t=cresc.	!	!
8E-L	.	(8GL	.	(8b-L	.	8ggL	.	I
(8E-J	.	8B-J	.	8gJ	.	8ee-J	.	.
[4EX)	.	8GL	.	8b-L	.	8dd-L	.	V65(2)/ii
.	.	8B-J)	.	8gJ)	.	8bb-J)	.	.
=19	=19	=19	=19	=19	=19	=19	=19	=19
8EL]	.	(8GL	.	(8b-L	.	(8ccL	.	V65/ii
8EXJ	.	8cJ	.	8gJ	.	8bb-J	.	.
[4F	.	8A-L	.	8a-L	.	8ccL	.	ii
.	.	8cJ)	.	8fJ)	.	8aa-J	.	.
=20	=20	=20	=20	=20	=20	=20	=20	=20
8F]	.	(8A-L	.	(8a-L	.	8cc-XL	.	V43(b2)
4F	.	8dJ	.	8c-XJ	.	8aa-J	.	.
.	.	8A-L	.	8a-L	.	8b-L	.	V43
[8FF	.	8dJ)	.	8B-J)	.	8aa-J	.	.
=21	=21	=21	=21	=21	=21	=21	=21	=21
8FFL]	.	(8A-L	.	(8a-L	.	8b-L	.	.
(8FFJ	.	(8B-J	.	8dJ	.	8aa-J	.	.
8GGL)	.	8B-L))	.	8e-L	.	8ggL	.	I6
8GG^J	.	[8E-^J	.	8B-^J	.	8ee-^J	.	.
=22	=22	=22	=22	=22	=22	=22	=22	=22
!	!LO:DY:a	!	!LO:DY:a	!	!	!	!	!
8AA-L	p p	8E-L]	p	8cL)	.	8ccL	p	IV
(8AA-J	.	(8FJ	.	(8cJ	.	16a-L	.	ii6
.	.	.	.	.	.	16fJJ)	.	.
8BB-L)	.	8F'L)	.	8d'L)	.	8d'L	.	V
8BB-J	.	8F'J	.	8d'J	.	8b-'J	.	.
=23	=23	=23	=23	=23	=23	=23	=23	=23
8EE-	.	4r	.	8.d- 8.f-X	.	8B- 8g	.	I(+b7+b2)
8r	.	.	.	.	.	8r	.	.
.	.	.	.	16r	.	.	.	.
4r	.	8.e-	.	4r	.	4r	.	I
.	.	16r	.	.	.	.	.	.
=24	=24	=24	=24	=24	=24	=24	=24	=24
8EE-	.	4r	.	8.dX 8.f	.	8c-X 8a-	.	iv64(+6+#4)
8r	.	.	.	.	.	8r	.	.
.	.	.	.	16r	.	.	.	.
4r	.	8.e-	.	4r	.	4r	.	I
.	.	16r	.	.	.	.	.	.
=25	=25	=25	=25	=25	=25	=25	=25	=25
8r	.	2r	.	8r	.	(8bb-L	<	.
(8E-	<	.	.	(8ee-	<	8ggJ	.	.
8GL	>	.	.	8b-L	>	8ee-L	[ >	I6
8A-J	] ]]	.	.	8e-J)	] ]]	8ccJ	]]	IV
=26	=26	=26	=26	=26	=26	=26	=26	=26
8B-L)	.	(8gL	.	(8e-L	.	8b-L	.	V(64)
8BB-J	.	8e-J	.	8B-J	.	8gJ	.	.
8BB-L	.	8B-L	.	8dL	.	8fL	.	V
8BB-J	.	8dJ)	.	8fJ)	.	8b-J)	.	.
=27	=27	=27	=27	=27	=27	=27	=27	=27
8EE-	.	4r	.	8.d- 8.f-X	.	8B- 8g	.	I(+b7+b2)
8r	.	.	.	.	.	8r	.	.
.	.	.	.	16r	.	.	.	.
4r	.	8.e-	.	4r	.	4r	.	I
.	.	16r	.	.	.	.	.	.
=28	=28	=28	=28	=28	=28	=28	=28	=28
8EE-	.	4r	.	8.dX 8.f	.	8c-X 8a-	.	iv64(+6+#4)
8r	.	.	.	.	.	8r	.	.
.	.	.	.	16r	.	.	.	.
4r	.	8.e-	.	4r	.	4r	.	I
.	.	16r	.	.	.	.	.	.
=29	=29	=29	=29	=29	=29	=29	=29	=29
8r	.	2r	.	(8ggL	<	(8bb-L	<	.
(8e-	<	.	.	8ee-J	.	8ggJ	.	.
8gL	>	.	.	8b-L	[ >	8eee-L	[ >	I6
8a-J)	] ]]	.	.	8e-J)	]]	8cccJ	]]	IV64
=30	=30	=30	=30	=30	=30	=30	=30	=30
(8b-L	.	(8ee-L	.	(8gL	.	8bb-L	.	V(64)
8B-J)	.	8b-J	.	8e-J	.	8ggJ	.	.
8B-L	.	8a-L	.	8dL)	.	8ffL	.	V7
[8B-J	.	8fJ)	.	8dJ	.	8bb-J)	.	.
=31	=31	=31	=31	=31	=31	=31	=31	=31
!LO:TX:a:i:t=cresc.	!	!LO:TX:a:i:t=cresc.	!	!LO:TX:a:i:t=cresc.	!	!	!	!
(8B-L]	.	4.e-	.	4.g	.	8r	.	I\\
8GJ	.	.	.	.	.	(4b-	.	I6
8E-L	.	.	.	.	.	.	.	.
[8CJ)	.	[8e-	.	[8ee-	.	8a-	.	IV6
=32	=32	=32	=32	=32	=32	=32	=32	=32
(16CLL]	.	8e-L]	.	(8ee-L]	.	8gL	.	vi
16BB-	.	.	.	.	.	.	.	.
16GG	.	(8e-J	.	8gJ	.	8ggJ	.	I6
16EE-JJ)	.	.	.	.	.	.	.	.
8BB-'L	>	8dL	>	8fL	>	8ffL	>	V
8BB-'J	]]	8B-J)	]]	8fJ) 8dd	]]	8bb-J)	]]	.
=33	=33	=33	=33	=33	=33	=33	=33	=33
8EE-	p	8B-	p	8g 8ee-	p	8gg	p	I[I64
8r	.	8r	.	8r	.	8r	.	.
8EE-	.	8c-X	.	8f 8dd	.	8aa-	.	viio2
8r	.	8r	.	8r	.	8r	.	.
=34	=34	=34	=34	=34	=34	=34	=34	=34
4EE-	.	4B-	.	4g 4ee-	.	4gg	.	I64]\\
4r	.	8r	.	4r	.	4r	.	.
.	.	(8b-	.	.	.	.	.	.
=35	=35	=35	=35	=35	=35	=35	=35	=35
2r	.	(4.ee-)	.	2r	.	2r	.	I
.	.	8dd)	.	.	.	.	.	.
=36	=36	=36	=36	=36	=36	=36	=36	=36
2r	.	(8dd-L	.	2r	.	2r	.	@none
.	.	16b-L	.	.	.	.	.	.
.	.	16cc-XJJ	.	.	.	.	.	.
.	.	8dd-L	.	.	.	.	.	.
.	.	8b-J)	.	.	.	.	.	.
=37	=37	=37	=37	=37	=37	=37	=37	=37
2r	.	(8cc-XL	.	2r	.	2r	.	.
.	.	16a-L	.	.	.	.	.	.
.	.	16b-JJ	.	.	.	.	.	.
.	.	16cc-LL	.	.	.	.	.	.
.	.	16b-	.	.	.	.	.	.
.	.	16cc-	.	.	.	.	.	.
.	.	16a-JJ)	.	.	.	.	.	.
=38	=38	=38	=38	=38	=38	=38	=38	=38
2r	.	(8f-XL	.	4r	.	4r	.	.
.	.	8e-J	.	.	.	.	.	.
.	.	8dXL	.	8r	.	8r	.	V6
.	.	[8d-J)	.	(8e-	.	8r	.	V2/IV
=39	=39	=39	=39	=39	=39	=39	=39	=39
2r	.	8d-L]	.	(4.b-)	.	4r	.	.
.	.	(8B-J	.	.	.	.	.	.
.	.	8cL)	.	.	.	8r	.	#viio(2)/V
.	.	8c'J	.	8aX)	.	8r	.	.
=40	=40	=40	=40	=40	=40	=40	=40	=40
2r	.	8r	.	(8a-L	.	2r	.	viio
.	.	(8d-	.	16fL	.	.	.	.
.	.	.	.	16gJJ	.	.	.	.
.	.	8dXL)	.	8a-L	.	.	.	.
.	.	8d'J	.	8fJ)	.	.	.	.
=41	=41	=41	=41	=41	=41	=41	=41	=41
2r	.	8r	.	(8gL	.	2r	.	i
.	.	4e-	.	16e-L	.	.	.	.
.	.	.	.	16fJJ	.	.	.	.
.	.	.	.	16g-LL	.	.	.	.
.	.	.	.	16f	.	.	.	.
.	.	[8E-	.	16g-	.	.	.	.
.	.	.	.	16e-JJ)	.	.	.	.
=42	=42	=42	=42	=42	=42	=42	=42	=42
2r	.	8E-L]	.	(8c-XL	.	2r	.	#ivo2
.	.	(16E-L	.	8B-J	.	.	.	.
.	.	16FJJ	.	.	.	.	.	.
.	.	16G-LL	.	4AX)	.	.	.	.
.	.	16F	.	.	.	.	.	.
.	.	16G-	.	.	.	.	.	.
.	.	16E-JJ)	.	.	.	.	.	.
=43	=43	=43	=43	=43	=43	=43	=43	=43
4r	.	(8DL	.	(8c-XL	.	8r	.	viio7
.	.	16dL	.	8B-J	.	8r	.	V
.	.	16e-JJ	.	.	.	.	.	.
8r	.	16fLL	.	8A-L	.	8r	.	viio64
.	.	16e-	.	.	.	.	.	.
(8BB-	.	16f	.	[8a-J)	.	8r	.	V7
.	.	16dJJ)	.	.	.	.	.	.
=44	=44	=44	=44	=44	=44	=44	=44	=44
(4.E-)	.	(8B-L	.	(16a-LL]	.	2r	.	viio
.	.	.	.	16gJ	.	.	.	.
.	.	8GXJ	.	8e-J	.	.	.	.
.	.	4A-)	.	8fL)	.	.	.	.
8D)	.	.	.	8f'J	.	.	.	.
=45	=45	=45	=45	=45	=45	=45	=45	=45
(8D-L	.	(4B-	.	8r	.	2r	.	V43/iv
16BB-L	.	.	.	(8g-	.	.	.	.
16C-XJJ	.	.	.	.	.	.	.	.
8D-L	.	[4E-)	.	8gXL)	.	.	.	.
8BB-J)	.	.	.	8g'J	.	.	.	.
=46	=46	=46	=46	=46	=46	=46	=46	=46
!LO:TX:b:i:t=cresc.	!	!LO:TX:b:i:t=cresc.	!	!LO:TX:a:i:t=cresc.	!	!	!	!
(8C-XL	.	4E-]	.	8r	.	2r	.	iv6
16AA-L	.	.	.	4a-	.	.	.	.
16BB-JJ	.	.	.	.	.	.	.	.
16C-LL	.	(4c-X	.	.	.	.	.	.
16BB-	.	.	.	.	.	.	.	.
16C-	.	.	.	[8A-	.	.	.	.
16AA-JJ)	.	.	.	.	.	.	.	.
=47	=47	=47	=47	=47	=47	=47	=47	=47
(8FF-XL	.	8c-XL)	.	8A-L]	.	4r	.	iv64
8EE-J	.	(8c-J	.	(16a-L	.	.	.	.
.	.	.	.	16b-JJ	.	.	.	.
8DDXL	.	8A-L	.	16cc-XLL	.	8r	.	viio7
.	.	.	.	16b-	.	.	.	.
[8DD-J)	.	16a-L	.	16cc-	.	(8ff	.	V7/bIII
.	.	16fJJ)	.	16a-JJ)	.	.	.	.
=48	=48	=48	=48	=48	=48	=48	=48	=48
!	!LO:DY:a	!	!	!	!	!	!	!
8DD-L]	sf sf >	8d-L	>	2g-	sf > ]]	4.bb-)	sf >	#viio6(2)/V
(8BB-J	.	(8D-J	.	.	.	.	.	.
8CL)	.	8E-L)	.	.	.	.	.	.
8C'J	]]	8E-'J	]]	.	.	8aaX	]]	#viio6/V
=49	=49	=49	=49	=49	=49	=49	=49	=49
8r	.	(4c-X	p	(4A- 2f	p	(8aa-L	p	V/bIII
(8D-	p	.	.	.	.	16ffL	.	.
.	.	.	.	.	.	16ggJJ	.	.
8DXL)	.	4F)	.	4B-)	.	8aa-L	.	V65
8D'J	.	.	.	.	.	8ffJ)	.	.
=50	=50	=50	=50	=50	=50	=50	=50	=50
8r	.	8E-	.	8B-L	.	(8ggL	.	I
!	!LO:DY:a	!	!LO:DY:a	!	!	!	!	!
4E-	f f	[4.G-	f	((8c-XJ 8e-	.	16ee-L	f	.bVI6
.	.	.	.	.	.	16ffJJ	.	.
.	.	.	.	((4c-)) 4g-	.	16gg-LL	.	.
.	.	.	.	.	.	16ff	.	.
[8EE-	.	.	.	.	.	16gg-	.	.
.	.	.	.	.	.	16ee-JJ)	.	.
=51	=51	=51	=51	=51	=51	=51	=51	=51
!	!	!	!LO:DY:a	!	!	!	!	!
8EE-L]	p	4G-]	p p	8c-XL)) 8g-	.	(8cc-XL	p	.
(16EE-L	.	.	.	(8g-J	.	8b-J	.	i
16FFJJ	.	.	.	.	.	.	.	.
16GG-LL	.	8r	.	8cL	.	4aX)	.	#viio43/V
16FF	.	.	.	.	.	.	.	.
16GG-	.	(8g-	.	8ccJ)	.	.	.	.
16EE-JJ)	.	.	.	.	.	.	.	.
=52	=52	=52	=52	=52	=52	=52	=52	=52
(8DDL	.	4B-)	.	(8fL	.	(8b-L	.	V6
16DD-L	.	.	.	8f-XJ	.	8a-J	.	ii%65/iv
16EE-JJ	.	.	.	.	.	.	.	.
16FF-XLL	.	(8f-XL	.	8B-L	.	8gXL	.	V(b9)/iv
16EE-	.	.	.	.	.	.	.	.
16DD-	.	16e-L	.	((8gXJ) 8b-	.	(8ee-J)	.	V2/iv
16D-JJ)	.	16B-JJ)	.	.	.	.	.	.
=53	=53	=53	=53	=53	=53	=53	=53	=53
(8C-XL	.	4c-X	.	(16gLL)) 16b-	.	(8ee-L)	.	iv6
.	.	.	.	16a-)	.	.	.	.
8BB-J	.	.	.	(16e-	.	8gg-J	.	i64
.	.	.	.	16fJJ	.	.	.	.
4AAX)	.	4r	.	16g-LL	.	8ccL	.	#viio7
.	.	.	.	16f	.	.	.	.
.	.	.	.	16g-	.	8cccJ)	.	.
.	.	.	.	16e-JJ)	.	.	.	.
=54	=54	=54	=54	=54	=54	=54	=54	=54
(8BB-L	.	4r	.	(8dL	.	(8ffL	.	V
8AA-J	.	.	.	16d-L	.	8ff-XJ	.	.bvii64
.	.	.	.	16e-JJ	.	.	.	.
8GGL	.	8r	.	16f-XLL	.	16b-LL	.	iiio7
.	.	.	.	16e-	.	16bb-J	.	I6
[8GG-J)	.	(8e-	.	16d-	.	8bb--XJ)	.	io6
.	.	.	.	16e-JJ)	.	.	.	.
=55	=55	=55	=55	=55	=55	=55	=55	=55
(8GG-L]	.	(4.a-)	.	8c	.	(16bb--XLL	.	V2/bvii
.	.	.	.	.	.	16aa-J)	.	.
8FF-XJ	.	.	.	8r	.	(8a-J	.	.bvii6
8EE-L	.	.	.	4r	.	8b-L)	.	I(4)
(8E-J)	.	8g)	.	.	.	8b-J	.	I
=56	=56	=56	=56	=56	=56	=56	=56	=56
8E-L)	.	(8g-L	.	4r	.	8r	.	i
8BB--XJ	.	16e-L	.	.	.	(8cc-X	.	VII2/.bvii
.	.	16f-XJJ	.	.	.	.	.	.
8AA-L	.	8g-L	.	8r	.	8ccL)	.	V7/.bvii
8G-J	.	(8e-J)	.	(8a-	.	8cc'J	.	.
=57	=57	=57	=57	=57	=57	=57	=57	=57
!LO:TX:b:i:t=cresc.	!	!LO:TX:a:i:t=cresc.	!	!LO:TX:b:i:t=cresc.	!	!	!	!
8F-X	.	(16e-LL)	.	4.dd-	.	8r	.	.bvii6
.	.	16d-J)	.	.	.	.	.	.
!	!	!	!	!	!	!LO:TX:b:i:t=cresc.	!	!
8r	.	(8D-J	.	.	.	(16b--XLL	.	.
.	.	.	.	.	.	16a-JJ	.	.
8r	.	8E-L)	.	.	.	8g-L	.	V7/.bvii
(8AA-	.	8E-'J	.	8cc)	.	8a-J)	.	.
=58	=58	=58	=58	=58	=58	=58	=58	=58
4.E--X	.	8r	.	(8cc-XL	.	8r	.	.bII2
.	.	(8F-X	.	16a-L	.	(16c-XLL	.	.
.	.	.	.	16b--XJJ	.	16B--XJJ	.	.
.	.	8FL)	.	8cc-L	.	8A-L)	.	iio2
8D-)	.	(8FJ	.	(8a-J)	.	(8aa-J	.	.bVII
=59	=59	=59	=59	=59	=59	=59	=59	=59
!	!LO:DY:a	!	!	!	!	!	!	!
(8C-XL	f f	8FL)	.	8a-L)	f	(4.eee--X)	f	.bV.V43
16AA-L	sf	(16c-XL	sf	(8gg--XJ	sf	.	.	.
16BB--XJJ	.	16B--XJJ	.	.	.	.	.	.
8C-L	.	8A-L	.	8ff-XL)	.	.	.	.
(8FF-XJ)	.	[8B--J)	.	8ff-'J	.	8ddd-)	.	I64
=60	=60	=60	=60	=60	=60	=60	=60	=60
!	!LO:DY:a	!	!	!	!	!	!	!
(2FF-X)	sf	8B--L]	.	8r	.	(4.ddd--X	sf	V[i
.	.	(16B--XL	.	(8ee-	sf	.	.	.
.	.	16A-JJ	.	.	.	.	.	.
.	.	8G-L	.	8ee--XL)	.	.	.	.
.	.	(8A-J)	.	(8ee--J	.	8ccc-X)	.	V
=61	=61	=61	=61	=61	=61	=61	=61	=61
(2FF-X)	.	8A-L)	.	8ee-L)	.	(4.gg--X	sf	viio
.	.	(16e--XL	sf	(16cc-XL	sf	.	.	.
.	.	16d--XJJ	.	16b--XJJ	.	.	.	.
.	.	8c-XL	.	8a-L	.	.	.	.
.	.	(8d--J)	.	(8b--J)	.	8ff-X)	.	i
=62	=62	=62	=62	=62	=62	=62	=62	=62
4.FF-X)	.	8d--XL)	.	8b--XL)	.	(4.ee-	sf	#ivo7]
.	.	(16d--L	sf	(16b--L	sf	.	.	.
.	.	16c-XJJ	.	16a-JJ	.	.	.	.
.	.	8B--XL	.	8g-L	.	.	.	.
8GG--X	.	8c-J)	.	8a-J)	.	8ee--X)	.	viio2
=63	=63	=63	=63	=63	=63	=63	=63	=63
2AA-	>	(4F	>	(4cc-X	>	(2ee--X	>	V65
.	.	(4F-X)	.	(4c-X)	.	.	.	.
=64	=64	=64	=64	=64	=64	=64	=64	=64
(4A-	.	(4F-X)	.	(4c-X)	.	(4ee--X)	.	.
4B--X)	]	4d-)	]	4B--X)	]	4dd-)	]	I\\
=65	=65	=65	=65	=65	=65	=65	=65	=65
8.B--X	pp	2r	.	2r	.	2r	.	I
16r	.	.	.	.	.	.	.	.
8.A-	.	.	.	.	.	.	.	.
16r	.	.	.	.	.	.	.	.
=66	=66	=66	=66	=66	=66	=66	=66	=66
8.G-	.	2r	.	(2gg-	pp	(2bb--X	pp	vi2
16r	.	.	.	.	.	.	.	.
8.F-X	.	.	.	.	.	.	.	.
16r	.	.	.	.	.	.	.	.
=67	=67	=67	=67	=67	=67	=67	=67	=67
8.E--X	.	4r	.	2gg-)	.	2bb--X)	.	#ivo2
16r	.	.	.	.	.	.	.	.
!	!	!	!LO:DY:a	!	!	!	!	!
8.D-	.	(4ee-	pp	.	.	.	.	.
16r	.	.	.	.	.	.	.	.
=68	=68	=68	=68	=68	=68	=68	=68	=68
8.C	.	(4ee-)	.	(4gg-	.	2aa-	.	iii
16r	.	.	.	.	.	.	.	.
8.D-	.	8a-)	.	8ff-X)	.	.	.	.
.	.	8r	.	8r	.	.	.	.
16r	.	.	.	.	.	.	.	.
=69	=69	=69	=69	=69	=69	=69	=69	=69
8.A--X	.	2r	.	2r	.	2r	.	.bIV.I
16r	.	.	.	.	.	.	.	.
8.G-	.	.	.	.	.	.	.	.
16r	.	.	.	.	.	.	.	.
=70	=70	=70	=70	=70	=70	=70	=70	=70
8.F-X	.	2r	.	(2ff-X	.	(2aa--X	.	vi2
16r	.	.	.	.	.	.	.	.
8.E--X	.	.	.	.	.	.	.	.
16r	.	.	.	.	.	.	.	.
=71	=71	=71	=71	=71	=71	=71	=71	=71
8.D--X	.	4r	.	(2ff-X)	.	2aa--X)	.	#ivo2
16r	.	.	.	.	.	.	.	.
8.C-X	.	[4dd-	.	.	.	.	.	.
16r	.	.	.	.	.	.	.	.
=72	=72	=72	=72	=72	=72	=72	=72	=72
8.BB-	.	(4dd-]	.	(4ff-X)	.	2gg-	.	iii
16r	.	.	.	.	.	.	.	.
8.C-X	.	8g-)	.	8ee--X)	.	.	.	.
.	.	8r	.	8r	.	.	.	.
16r	.	.	.	.	.	.	.	.
=73	=73	=73	=73	=73	=73	=73	=73	=73
8.G--X	.	2r	.	2r	.	2r	.	.bIII.I
16r	.	.	.	.	.	.	.	.
8.F-X	.	.	.	.	.	.	.	.
16r	.	.	.	.	.	.	.	.
=74	=74	=74	=74	=74	=74	=74	=74	=74
8.E--X	.	2r	.	[2dd	.	[2ff	.	vii2
16r	.	.	.	.	.	.	.	.
8.D--X	.	.	.	.	.	.	.	.
16r	.	.	.	.	.	.	.	.
=75	=75	=75	=75	=75	=75	=75	=75	=75
8.C-X	.	4r	.	4dd]	.	4ff]	.	viio43
16r	.	.	.	.	.	.	.	.
[4BB-	.	[4f	.	[4dd	.	[4aa-	.	V7
=76	=76	=76	=76	=76	=76	=76	=76	=76
2BB-]	> < [[	2f]	> < [[	2dd]	> < [[	2aa-]	< > ]]	.
=77	=77	=77	=77	=77	=77	=77	=77	=77
2r	[	(2cc-X	[ pp	2r	[	2r	]	viio2
=78	=78	=78	=78	=78	=78	=78	=78	=78
!	!	!LO:TX:a:i:t=cresc.	!	!	!	!	!	!
2r	.	(4.cc-X)	.	2r	.	8r	.	.
!	!	!	!	!	!	!LO:TX:b:i:t=cresc.	!	!
.	.	.	.	.	.	16dd'LL	.	.
.	.	.	.	.	.	16ee-'JJ	.	.
.	.	.	.	.	.	16dd'LL	.	.
.	.	.	.	.	.	16ee-'	.	.
.	.	8b-)	.	.	.	16ff'	.	V
.	.	.	.	.	.	[16aa-JJ	.	.
=79	=79	=79	=79	=79	=79	=79	=79	=79
2r	.	(4.ee-	p	2r	.	16aa-LL]	p	I
.	.	.	.	.	.	16gg'	.	.
.	.	.	.	.	.	16bb-'	.	.
.	.	.	.	.	.	16ee-'JJ	.	.
.	.	.	.	.	.	16ff'LL	.	.
.	.	.	.	.	.	16bb-'JJ	.	.
.	.	8dd)	.	.	.	8r	.	.
=80	=80	=80	=80	=80	=80	=80	=80	=80
2r	.	(8dd-L	.	2r	.	16r	.	V2/iv
.	.	.	.	.	.	16bb-'LL	.	.
.	.	16b-L	.	.	.	16eee-'	.	.
.	.	16cc-XJJ	.	.	.	16aa-'JJ	.	iv6
.	.	8dd-L	.	.	.	16gg'LL	.	V2/iv
.	.	.	.	.	.	16eee-'JJ	.	.
.	.	8b-J)	.	.	.	8r	.	.
=81	=81	=81	=81	=81	=81	=81	=81	=81
2r	.	(8cc-XL	.	4r	.	16r	.	iv6
!	!	!	!	!	!	!LO:TX:b:i:t=sempre piano	!	!
.	.	.	.	.	.	16aa-'LL	.	.
.	.	16a-L	.	.	.	16bbX'	.	#viio2/vi
.	.	16b-JJ	.	.	.	16ff-X'JJ	.	viio7/iv
.	.	16cc-LL	.	8r	.	16ee-'LL	.	iv
.	.	16b-	.	.	.	16aa-'	.	V7
.	.	16cc-	.	(8e-	.	16a-'	.	iv
.	.	[16e-JJ)	.	.	.	16ff'JJ	.	ii2
=82	=82	=82	=82	=82	=82	=82	=82	=82
2r	.	16e-LL]	.	(4.b-)	.	16ff'LL	.	V6(4)
.	.	16dX'	.	.	.	16f'JJ	.	V6
.	.	16f'	.	.	.	8r	.	.
.	.	16B-'JJ	.	.	.	.	.	.
.	.	16c'LL	.	.	.	16r	.	V7/V
!	!	!	!	!	!	!LO:TX:b:i:t=stacc.	!	!
.	.	16f'JJ	.	.	.	16ccLL	.	.
.	.	8r	.	8aX)	.	16ee-	.	.
.	.	.	.	.	.	16aXJJ	.	.
=83	=83	=83	=83	=83	=83	=83	=83	=83
4r	.	16r	.	(8a-L	.	16ffLL	.	V65
.	.	16F'LL	.	.	.	16a-JJ	.	.
.	.	16B-'	.	16fL	.	8r	.	.
.	.	16D'JJ	.	16gJJ	.	.	.	.
8r	.	16D'LL	.	8a-L	.	16r	.	.
.	.	16B-'	.	.	.	16ffLL	.	.
(8AA-	.	16D'	.	[8fJ)	.	16aa-	.	viio43
.	.	16c-X'JJ	.	.	.	16ddJJ	.	.
=84	=84	=84	=84	=84	=84	=84	=84	=84
!LO:TX:a:i:t=cresc.	!	!LO:TX:a:i:t=cresc.	!	!LO:TX:a:i:t=cresc.	!	!	!	!
(4.D)	.	16A-'LL	.	16fLL]	.	16ffLL	.	.
.	.	16F'JJ	.	16c-X'	.	16a-JJ	.	.
.	.	8r	.	16f'	.	8r	.	.
.	.	.	.	16A-'JJ	.	.	.	.
.	.	16r	.	16B-'LL	.	8r	.	V6
!	!	!LO:TX:b:i:t=stacc.	!	!	!	!	!	!
.	.	16b-LL	.	16f'	.	.	.	.
8D-)	.	16dd-	.	16B-'	.	(8bb-	.	.bIII64
.	.	16g-JJ	.	16g-'JJ	.	.	.	.
=85	=85	=85	=85	=85	=85	=85	=85	=85
(8CL	.	16g-LL	.	16r	.	(4.eee-)	.	V64/V
.	.	16e-JJ	.	16aX'LL	.	.	.	.
16AAXL	.	8r	.	16cc'	.	.	.	.
16BB-JJ	.	.	.	16g-'JJ	.	.	.	.
8CL	.	16r	.	16f'LL	.	.	.	.
.	.	16fLL	.	16a'	.	.	.	.
8FFJ)	.	16b-	.	16f'	.	8ddd)	.	V64
.	.	16B-JJ	.	16b-'JJ	.	.	.	.
=86	=86	=86	=86	=86	=86	=86	=86	=86
(4EEX	.	8r	.	16r	.	(8ddd-L	.	#io7
.	.	.	.	16b-'LL	.	.	.	.
.	.	16gXLL	.	16dd-'	.	16bb-L	.	.
.	.	16B-JJ	.	16gX'JJ	.	16cccJJ	.	.
4EE-)	.	8r	.	16r	.	8ddd-L	.	#ivo43(4)
.	.	.	.	16aX'LL	.	.	.	.
.	.	16g-LL	.	16cc'	.	[8cccJ)	.	#ivo43
.	.	16AXJJ	.	16g-'JJ	.	.	.	.
=87	=87	=87	=87	=87	=87	=87	=87	=87
!	!	!	!LO:DY:a	!	!	!	!	!
8DDL	f	8r	f	16r	.	8cccL]	f	vii7
.	.	.	.	16aX'LL	.	.	.	.
[8DD-J	.	16fLL	f	16ff'	.	(16aaXL	.	v.i6
.	.	16FJJ	.	16b-'JJ	.	16bb-JJ	.	.
(16DD-LL]	.	8r	.	16ff'LL	.	16cccLL	.	.
16D-	.	.	.	16b-'	.	16bb-	.	.
!	!	!	!LO:DY:a	!	!	!	!	!
16C	p	8f	p p	16ee-'	.	16aa	p	V7
16FFJJ)	.	.	.	16cc'JJ	.	[16eee-JJ)	.	.
=88	=88	=88	=88	=88	=88	=88	=88	=88
8BB-	.	(4.B-	.	8dd-	.	(16eee-LL]	.	i
.	.	.	.	.	.	16ddd-)	.	.
8r	.	.	.	8r	.	16b-'	.	.
.	.	.	.	.	.	16ff'JJ	.	.
4r	.	.	.	4r	.	16dd-'LL	.	.
!	!	!	!	!	!	!LO:TX:b:i:t=sempre piano	!	!
.	.	.	.	.	.	16b-'	.	.
.	.	8c-X)	.	.	.	16ee-'	.	.bIIM7
.	.	.	.	.	.	16b-'JJ	.	.
=89	=89	=89	=89	=89	=89	=89	=89	=89
4r	.	(8cL	.	2r	.	16ee-'LL	.	ii%7
.	.	.	.	.	.	16b-'	.	.
.	.	16e-L	.	.	.	16gg-'	.	.
.	.	16dJJ	.	.	.	16ff'JJ	.	.
8r	.	8cL	.	.	.	16ee-'LL	.	#viio6
.	.	.	.	.	.	16aX'	.	.
(8EE-	.	[8e-J)	.	.	.	16gg-'	.	#viio43
.	.	.	.	.	.	16a'JJ	.	.
=90	=90	=90	=90	=90	=90	=90	=90	=90
(4.BB-)	.	(8e-L]	.	16r	.	16ff'LL	.	I(4)
!	!	!	!	!LO:TX:b:i:t=sempre piano	!	!	!	!
.	.	.	.	16f'LL	.	16bb-'JJ	.	.
.	.	8dJ)	.	16f'	.	8r	.	I
.	.	.	.	16B-'JJ	.	.	.	.
.	.	4r	.	16c-X'LL	.	8r	.	.
.	.	.	.	16f'	.	.	.	.
8AAX	.	.	.	16c'	.	8r	.	I.V6/V
.	.	.	.	16f'JJ	.	.	.	.
=91	=91	=91	=91	=91	=91	=91	=91	=91
8AA-L	.	4r	.	16d'LL	.	2r	.	V2
.	.	.	.	16f'	.	.	.	.
16FFL	.	.	.	16d'	.	.	.	.
16GGJJ	.	.	.	16cc-X'JJ	.	.	.	.
8AA-'L)	.	8r	.	16d'LL	.	.	.	.
.	.	.	.	16cc-'	.	.	.	.
[8AA-J	.	(8B-	.	16d'	.	.	.	.
.	.	.	.	16b-'JJ	.	.	.	.
=92	=92	=92	=92	=92	=92	=92	=92	=92
8AA-L]	.	(4.E-)	.	16b-'LL	.	16r	.	I6(2)
.	.	.	.	16e-'JJ	.	16e-'LL	.	.
8GGJ	.	.	.	8r	.	16e-'	.	I6
.	.	.	.	.	.	16b-'JJ	.	.
!	!	!	!	!	!	!LO:TX:b:i:t=sempre stacc.	!	!
4r	.	.	.	4r	.	16gLL	.	.
.	.	.	.	.	.	16e-	.	.
.	.	8EX)	.	.	.	16a-	.	.bII2
.	.	.	.	.	.	16dJJ	.	.
=93	=93	=93	=93	=93	=93	=93	=93	=93
4r	.	(8FL	.	2r	.	16a-LL	.	.bVII65
.	.	.	.	.	.	16d-	.	.
.	.	16A-L	.	.	.	16cc-X	.	.
.	.	16GJJ	.	.	.	16b-JJ	.	.
8r	.	8FL	.	.	.	16a-LL	.	.
.	.	.	.	.	.	16d-	.	.
8AA-	.	[8A-J)	.	.	.	16cc-	.	.bVII43
.	.	.	.	.	.	16d-JJ	.	.
=94	=94	=94	=94	=94	=94	=94	=94	=94
(4.E-	.	(8A-L]	.	16r	.	16b-LL	.	I(4)
.	.	.	.	16b-'LL	.	16ee-JJ	.	.
.	.	8GJ)	.	16b-'	.	8r	.	I
.	.	.	.	16e-'JJ	.	.	.	.
!	!	!	!	!LO:TX:b:i:t=sempre stacc.	!	!	!	!
.	.	4r	.	16f-X'LL	.	8rg	.	I(b9)
.	.	.	.	16b-	.	.	.	.
8D	.	.	.	16f'	.	8r	.	V6
.	.	.	.	16b-'JJ	.	.	.	.
=95	=95	=95	=95	=95	=95	=95	=95	=95
8D-L	.	4r	.	16g-LL	.	2r	.	V2/IV
.	.	.	.	16b-	.	.	.	.
16BB-L	.	.	.	16gX	.	.	.	.
16BBXJJ	.	.	.	16ee-JJ	.	.	.	.
8D-'L)	.	8r	.	16gLL	.	.	.	.
.	.	.	.	16ee-	.	.	.	.
[8D-J	.	(8e-	p	16g	.	.	.	.
.	.	.	.	16ee-JJ	.	.	.	.
=96	=96	=96	=96	=96	=96	=96	=96	=96
(8D-L]	.	[2A-)	.	16g-'LL	.	8r	.	V65/bVII
.	.	.	.	16ee-'	.	.	.	.
8CJ)	.	.	.	16g-'	.	(8c	.	.
.	.	.	.	16ee-'JJ	.	.	.	.
8r	.	.	.	16c'LL	.	[4g-)	.	.
.	.	.	.	16e-'	.	.	.	.
(8E-	p	.	.	16c'	.	.	.	.
.	.	.	.	16e-'JJ	.	.	.	.
=97	=97	=97	=97	=97	=97	=97	=97	=97
4.AA-)	<	4.A-]	<	16c'LL	<	8g-L]	<	.
.	.	.	.	16e-'J	.	.	.	.
.	.	.	.	(8ccJ	.	16e-'L	.	.
.	.	.	.	.	.	16c'JJ	.	.
.	.	.	.	8gg-L	.	16cc'LL	.	.
.	.	.	.	.	.	16e-'	.	.
8D-	[ > ]]	(8A-	[ p > ]]	8ffJ)	[ > ]]	16cc-X'	[ >	.bVII7
.	.	.	.	.	.	16a-'JJ	]]	.
=98	=98	=98	=98	=98	=98	=98	=98	=98
4r	.	[2D-)	.	16a-'LL	p	8r	.	.
.	.	.	.	16cc-X'	.	.	.	.
.	.	.	.	16c-X'	.	(8f	p	.
.	.	.	.	16a-'JJ	.	.	.	.
8r	.	.	.	16A-'LL	.	(4cc-X)	.	.
.	.	.	.	16f'	.	.	.	.
(8AA-	p	.	.	16A-'	.	.	.	.
.	.	.	.	16f'JJ	.	.	.	.
=99	=99	=99	=99	=99	=99	=99	=99	=99
4.DD-)	<	4.D-]	<	16A-'LL	.	8cc-XL)	.	.
.	.	.	.	16f'J	.	.	.	.
.	.	.	.	(8ffJ	<	16a-'L	<	.
.	.	.	.	.	.	16f'JJ	.	.
.	.	.	.	8ccc-XL	.	16ff'LL	.	.
.	.	.	.	.	.	16a-'	.	.
8GG	>]	(8d-	p > ]]	8bb-J)	[ > ]]	16ff-X'	[ >	iiio7
.	.	.	.	.	.	16b-'JJ	]]	.
=100	=100	=100	=100	=100	=100	=100	=100	=100
4r	]	[2G)	]	16f-X'LL	.	8r	.	.
.	.	.	.	16dd-'	.	.	.	.
.	.	.	.	16d-'	.	(8B-	.	.
.	.	.	.	16f-'JJ	.	.	.	.
8r	.	.	.	16B-'LL	.	(4f-X)	.	.
.	.	.	.	16d-'	.	.	.	.
(8D-	p	.	.	16B-'	.	.	.	.
.	.	.	.	16d-'JJ	.	.	.	.
=101	=101	=101	=101	=101	=101	=101	=101	=101
4.GG)	< >	4.G]	< >	16B-'LL	.	8f-XL)	.	.
.	.	.	.	16d-'J	.	.	.	.
.	.	.	.	(8b-J	<	16d-'L	<	.
.	.	.	.	.	.	16B-'JJ	.	.
.	.	.	.	8ff-XL	[ >	16dd-'LL	.	.
.	.	.	.	.	.	16b-'	[ >	.
8C	]]	(8e-	]]	8ee-J)	]]	16aX'	.	vio65
.	.	.	.	.	.	16g-'JJ	]]	.
=102	=102	=102	=102	=102	=102	=102	=102	=102
!	!	!	!LO:DY:a	!	!	!	!	!
4r	]	[2AX)	] p	16g-'LL	.	8r	.	#viio7/V
.	.	.	.	16ee-'	.	.	.	.
.	.	.	.	16e-'	.	(8c	.	.
.	.	.	.	16g-'JJ	.	.	.	.
8r	.	.	.	16c'LL	.	[4g-)	.	.
.	.	.	.	16e-'	.	.	.	.
(8E-	p	.	.	16c'	.	.	.	.
.	.	.	.	16e-'JJ	.	.	.	.
=103	=103	=103	=103	=103	=103	=103	=103	=103
!LO:TX:b:i:t=cresc.	!	!LO:TX:b:i:t=cresc.	!	!LO:TX:b:i:t=cresc.	!	!LO:TX:b:i:t=cresc.	!	!
4.AAX)	.	4.A]	.	16c'LL	.	8g-L]	.	.
.	.	.	.	16e-'J	.	.	.	.
.	.	.	.	(8ccJ	.	16g-'L	.	.
.	.	.	.	.	.	16e-'JJ	.	.
.	.	.	.	8gg-L)	.	16cc'LL	.	.
.	.	.	.	.	.	16e-'J	.	.
8BB-	.	[8g-	.	16e-'L	.	(8ee-J	.	V[i6
.	.	.	.	16b-'JJ	.	.	.	.
=104	=104	=104	=104	=104	=104	=104	=104	=104
!	!	!	!LO:DY:a	!	!	!	!	!
4.BB-	f	8g-L]	f f	16e-'LL	.	4.bb-)	f	#ivo2
.	.	.	.	16b-'	.	.	.	.
.	.	(8g-J	.	16b-'	.	.	.	.
.	.	.	.	16ee-'JJ	.	.	.	.
.	.	[4c)	.	16aX'LL	.	.	.	.
.	.	.	.	16ee-'	.	.	.	.
(8G-	.	.	.	16a'	.	(8ee-	.	.
.	.	.	.	16ee-'JJ	.	.	.	.
=105	=105	=105	=105	=105	=105	=105	=105	=105
!	!	!	!LO:DY:a	!	!	!	!	!
4.BB-)	sf	8cL]	sf	16a-LL	.	4.aa-)	sf	ivo2
.	.	.	.	16ee-	.	.	.	.
!	!	!	!	!LO:TX:b:i:t=stacc.	!	!	!	!
.	.	(8fJ	.	16a-	.	.	.	.
.	.	.	.	16ee-JJ	.	.	.	.
.	.	(4c-X)	sf	16a-LL	.	.	.	.
.	.	.	.	16dd	.	.	.	.
(8F	.	.	.	16a-	.	(8dd	.	ivo65
.	.	.	.	16ddJJ	.	.	.	.
=106	=106	=106	=106	=106	=106	=106	=106	=106
4BB-)	sf	8c-XL)	.	16a-LL	sf	4.aa-)	sf	v7]
.	.	.	.	16dd-	.	.	.	.
.	.	(8f-XJ	.	16a-	.	.	.	.
.	.	.	.	16dd-JJ	.	.	.	.
(8BB-	.	8B-L)	.	16a-LL	.	.	.	.
.	.	.	.	16dd-	.	.	.	.
8E-	sf	(8B-J	sf	16g	.	(8dd-	sf	I[V7/V
.	.	.	.	16dd-JJ	.	.	.	.
=107	=107	=107	=107	=107	=107	=107	=107	=107
8EE-L)	.	8A-L)	.	16g-LL	.	8gg-L)	.	IV43
.	.	.	.	16cc	.	.	.	.
(8E-J	sf	(8aXJ	sf	16g-	sf	(8ccJ	sf	#ivo
.	.	.	.	16ccJJ	.	.	.	.
8EE-L)	.	8a-L)	.	16cc-XLL	.	8ffL)	.	viio43
.	.	.	.	16ddX	.	.	.	.
(8E-J	sf	(8a-J	sf	16d	sf	(8cc-XJ	sf	.
.	.	.	.	16fJJ	.	.	.	.
=108	=108	=108	=108	=108	=108	=108	=108	=108
8EE-L)	.	8dL)	.	16a-LL	.	8ffL)	.	.
.	.	.	.	16cc-X	.	.	.	.
(8E-J	sf	(8fJ	.	16c-X	.	(8a-J	sf	.
.	.	.	.	16dJJ	sf	.	.	.
8EE-L)	.	8A-L)	.	16fLL	.	8ddXL)	.	.
.	.	.	.	16a-	.	.	.	.
!	!	!	!LO:DY:a	!	!	!	!	!
(8E-J	sf	(8c-XJ	sf	16A-	.	(8fJ	sf	.
.	.	.	.	16dJJ	.	.	.	.
=109	=109	=109	=109	=109	=109	=109	=109	=109
8EE-L)	.	8FL)	.	16A-LL	.	8cc-XL)	.	.
.	.	.	.	16d	.	.	.	.
!LO:TX:b:i:t=dim.	!	!LO:TX:b:i:t=dim.	!	!LO:TX:b:i:t=dim.	!	!LO:TX:b:i:t=dim.	!	!
(8E-J	.	(8A-J	.	16c-X	.	(8dJ	.	.
.	.	.	.	16dJJ	.	.	.	.
8EE-L)	.	8FL)	.	16A-LL	.	8a-L)	.	.
.	.	.	.	16d	.	.	.	.
(8E-J	.	(8A-J	.	16c-	.	(8c-XJ	.	.
.	.	.	.	16dJJ	.	.	.	.
=110	=110	=110	=110	=110	=110	=110	=110	=110
8EE-)	.	8F)	.	16A-LL	.	8a-)	.	viio6
.	.	.	.	16dJJ	.	.	.	.
8r	.	8r	.	8r	.	8r	.	.
8r	.	8r	.	8r	.	8r	.	.
!	!	!	!	!	!LO:DY:a	!	!	!
(8E-	p	(8A-	p	16c-X'LL	p p	(8c-X	.	viio43
.	.	.	.	16d'JJ	.	.	.	.
=111	=111	=111	=111	=111	=111	=111	=111	=111
8EE-)	.	8F)	.	16A-'LL	.	8a-)	.	viio6
.	.	.	.	16d'JJ	.	.	.	.
8r	.	8r	.	8r	.	8r	.	.
8r	.	8r	.	8r	.	8r	.	.
!	!	!	!LO:DY:a	!	!LO:DY:a	!	!	!
8E-	pp	(8A-	pp pp	16c-X'LL	pp	(8d	.	viio43
.	.	.	.	16d'JJ	.	.	.	.
=112	=112	=112	=112	=112	=112	=112	=112	=112
!LO:TX:b:i:t=sotto voce	!	!	!	!	!	!	!	!
8.E-	.	8G)	.	16B-'LL	.	8e-)	.	I]
.	.	.	.	16e-'JJ	.	.	.	.
.	.	8r	.	8r	.	4r	.	I
16r	.	.	.	.	.	.	.	.
8.D	.	4r	.	4r	.	.	.	.
.	.	.	.	.	.	8r	.	.
16r	.	.	.	.	.	.	.	.
=113	=113	=113	=113	=113	=113	=113	=113	=113
8.C	.	2r	.	2r	.	2r	.	.
16r	.	.	.	.	.	.	.	.
8.BB-	.	.	.	.	.	.	.	.
16r	.	.	.	.	.	.	.	.
=114	=114	=114	=114	=114	=114	=114	=114	=114
8.AA-	.	2r	.	2r	.	2r	.	.
16r	.	.	.	.	.	.	.	.
8GG'L	.	.	.	.	.	.	.	.
8AAX'J	.	.	.	.	.	.	.	.
=115	=115	=115	=115	=115	=115	=115	=115	=115
2BB-	.	8r	.	8r	.	8r	.	V7
!	!	!LO:TX:b:i:t=dol.	!	!LO:TX:b:i:t=dol.	!	!LO:TX:b:i:t=dol.	!	!
.	.	4f	.	4a-	.	(4b-	.	.
.	.	8f	.	8a-	.	16ccLL	.	.
.	.	.	.	.	.	16ddJJ)	.	.
=116	=116	=116	=116	=116	=116	=116	=116	=116
4r	.	(8e-L	.	(8gL	.	(4ee-	.	I
.	.	8gJ	.	8b-J	.	.	.	.
!LO:TX:b:i:t=dol.	!	!	!	!	!	!	!	!
[4e-	.	8b-L	.	8ee-L	.	[4gg)	.	.
.	.	8gJ)	.	8b-J)	.	.	.	.
=117	=117	=117	=117	=117	=117	=117	=117	=117
2e-]	.	(8dd-L	.	(8ee-L	.	4gg]	.	V7/iv
.	.	8b-J	.	8dd-J	.	.	.	.
.	.	8dd-L	.	8ee-L	.	(8ff'L	.	.
.	.	8b-J)	.	8dd-J)	.	8gg'J)	.	.
=118	=118	=118	=118	=118	=118	=118	=118	=118
(4A-	<	(8cc-XL	<	(8ee-L	<	[4aa-	<	iv
.	.	8a-J	.	8cc-XJ	.	.	.	.
(4a-)	.	8cc-L	.	8ee-L	.	(32aa-LLL]	.	.
.	.	.	.	.	.	32bb-	.	.
.	.	.	.	.	.	32aa-	.	.
.	.	.	.	.	.	32ggJ)	.	.
.	.	8b-J	.	8dd-J	.	16aa-'	.	ii/iv
.	.	.	.	.	.	16bb-'JJ	.	.
=119	=119	=119	=119	=119	=119	=119	=119	=119
(4a-)	.	8a-L	.	8cc-XL	.	(4ccc-X	.	iv
.	.	8fJ	.	8ddXJ	.	.	.	.
4e-)	[ > ]]	8gL	[ >	8ee-L	[ >	8bb-L)	[ >	I
.	.	8b-J)	]]	8ggJ)	]]	8bb-J	]]	.
=120	=120	=120	=120	=120	=120	=120	=120	=120
4e-	.	(8b-L	.	8ggL	.	(8bb-L	.	.
.	.	8ee-J	.	(8ggJ	.	8eee-J	.	.
4r	.	8ffL	.	8aa-L	.	8dddL	.	vii6
.	.	8ee-J	.	8ggJ	.	8eee-J	.	I
=121	=121	=121	=121	=121	=121	=121	=121	=121
4B-	.	8ddL	.	8ffL	.	8.fffL	.	V7
.	.	8ffJ	.	8aa-J	.	.	.	.
.	.	.	.	.	.	16dddJk)	.	.
8r	.	8eeXL	.	8ggL	.	8bb-L	.	#io
8d	.	8ffJ)	.	8aa-J)	.	8bb-J	.	V65
=122	=122	=122	=122	=122	=122	=122	=122	=122
(8e-L	<	4ee-	<	4gg	<	4bb-	<	I
8gJ	.	.	.	.	.	.	.	.
8e-L	.	[4ee-	[[	[4gg-	[[	[4ccc	[[	#viio43/V
8aXJ)	[[	.	.	.	.	.	.	.
=123	=123	=123	=123	=123	=123	=123	=123	=123
(8B-L	p	(4ee-]	p	(4gg-]	p	(4ccc]	p	V(964)
8aXJ	.	.	.	.	.	.	.	.
8b-L)	.	8dd)	.	8ff)	.	8bb-)	.	V\\
(8b-J	.	8r	.	8r	.	8r	.	.
=124	=124	=124	=124	=124	=124	=124	=124	=124
8cc-XL	.	8B-	.	2ff	.	2aa-	.	V7
8b-J	.	4r	.	.	.	.	.	.
8ddL	.	.	.	.	.	.	.	.
8b-J)	.	8r	.	.	.	.	.	.
=125	=125	=125	=125	=125	=125	=125	=125	=125
(8cc-XL	.	8B-	.	4.ee-	.	(4.gg	.	I
8b-J	.	8r	.	.	.	.	.	.
8ee-L	.	8r	.	.	.	.	.	.
8b-J	.	(8g	.	8ee-	.	8eee-	.	.
=126	=126	=126	=126	=126	=126	=126	=126	=126
8a-L	.	4f	.	8ddL	.	4ddd	.	V7
8b-J	.	.	.	8aa-J	.	.	.	.
8gL	.	4e-)	.	8r	.	4eee-T)	.	I
8b-J)	.	.	.	8gg	.	.	.	.
=127	=127	=127	=127	=127	=127	=127	=127	=127
8f	.	8dL	.	8r	.	(8gggL	.	V65
4r	.	8b-J	.	8dd 8ff	.	[8fffJ)	.	.
.	.	8b-L	.	4r	.	(16fffLL]	.	.
.	.	.	.	.	.	32eee-L	.	.
.	.	.	.	.	.	32dddJ)	.	.
8r	.	8b-J	.	.	.	16ccc'	.	.
.	.	.	.	.	.	16bb-'JJ	.	.
=128	=128	=128	=128	=128	=128	=128	=128	=128
2f	.	(8a-L	.	(4dd	.	(8ccc-XL	.	V43(b9)
.	.	8b-J	.	.	.	8bb-J	.	.
.	.	8a-L	.	8cc-XL	.	8dddL	.	.
.	.	8b-J)	.	8b-J)	.	8bb-J	.	.
=129	=129	=129	=129	=129	=129	=129	=129	=129
!LO:TX:b:i:t=cresc.	!	!LO:TX:a:i:t=cresc.	!	!LO:TX:a:i:t=cresc.	!	!LO:TX:a:i:t=cresc.	!	!
8e-L	.	(8gL	.	8ggL	.	8eee-L	.	I6
(8e-J	.	8b-J	.	(8ggJ	.	8bb-J	.	.
[4eX)	.	8gL	.	8bb-L	.	8ddd-L	.	#viio65/ii
.	.	8b-J)	.	8ggJ	.	8bb-J	.	.
=130	=130	=130	=130	=130	=130	=130	=130	=130
8e]	.	(8gL	.	8bb-L	.	8cccL	.	V65/ii
4eX	.	8ccJ	.	8ggJ	.	8bb-J	.	.
.	.	8gL	.	8ggL	.	8cccL	.	.
[8f	.	8a-J)	.	8ccJ	.	8aa-J	.	ii
=131	=131	=131	=131	=131	=131	=131	=131	=131
8f]	.	(8a-L	.	8aa-L	.	8ccc-XL	.	viio43
4f	.	8ddJ	.	8cc-XJ	.	8aa-J	.	.
.	.	8A-L	.	8aa-L	.	8bb-L	.	V2
[8F	.	8dJ)	.	8b-J)	.	8aa-J	.	V43
=132	=132	=132	=132	=132	=132	=132	=132	=132
8FL]	.	(8A-L	.	(8aa-L	.	8bb-L	.	.
(8FJ	.	8dJ	.	8b-J	.	8aa-J	.	.
8GL)	.	8B-L	.	8ggL	.	8bb-L	.	I6
(8G^J	.	[8e-^J)	.	8b-^J)	.	16gg^L	.	.
.	.	.	.	.	.	16eee-JJ)	.	.
=133	=133	=133	=133	=133	=133	=133	=133	=133
!	!	!	!LO:DY:a	!	!	!	!	!
8A-L)	p	8e-L]	p p	8ccL	.	(8cccL	p	ii6
(8A-J	.	(8fJ	.	(8ccJ	.	16aa-L	.	.
.	.	.	.	.	.	16ffJJ)	.	.
8B-'L)	.	8f'L)	.	8a-'L)	.	8dd'L	.	V7
8B-'J	.	8f'J 8dd	.	8ff'J	.	8bb-'J	.	.
=134	=134	=134	=134	=134	=134	=134	=134	=134
8e-	.	8.dd-	.	8.ff-X	.	8b- 8gg	.	I[iiio43
8r	.	.	.	.	.	4r	.	.
.	.	16r	.	16r	.	.	.	.
*clefC4	*	*	*	*	*	*	*	*
8.ee-	.	4r	.	4r	.	.	.	.
.	.	.	.	.	.	8r	.	.
16r	.	.	.	.	.	.	.	.
=135	=135	=135	=135	=135	=135	=135	=135	=135
8e-	.	4ddX	.	4ff	.	4cc-X 4aa-	.	viio7
8r	.	.	.	.	.	.	.	.
8.ee-	.	4r	.	4r	.	4r	.	.
16r	.	.	.	.	.	.	.	.
=136	=136	=136	=136	=136	=136	=136	=136	=136
8r	.	(8ggL	<	8r	.	(8bb-L	<	I]
(8e-	<	8ee-J	.	(8b-	<	8ggJ	.	.
8gL	>	8b-L	[ >	8ee-L	>	8eee-L	[ >	I6
8a-J	] ]]	8a-J	]]	8ccJ	] ]]	8cccJ	]]	IV
=137	=137	=137	=137	=137	=137	=137	=137	=137
8b-L	.	8gL	.	8b-L	.	8bb-L	.	V(64)
8B-J)	.	8e-J	.	8gJ	.	8ggJ	.	.
8B-L	.	8dL	.	8fL	.	8ffL	.	V
8B-J	.	8dJ)	.	8fJ)	.	8bb-J)	.	.
=138	=138	=138	=138	=138	=138	=138	=138	=138
8E-	.	4r	.	8.d- 8.f-X	.	8B- 8g	.	I[iiio43
8r	.	.	.	.	.	4r	.	.
.	.	.	.	16r	.	.	.	.
8.e-	.	8.e-	.	4r	.	.	.	.
.	.	.	.	.	.	8r	.	.
16r	.	16r	.	.	.	.	.	.
=139	=139	=139	=139	=139	=139	=139	=139	=139
8E-	.	4r	.	8.d 8.f	.	8c-X 8a-	.	viio7
8r	.	.	.	.	.	4r	.	.
.	.	.	.	16r	.	.	.	.
8.e-	.	8.e-	.	4r	.	.	.	.
.	.	.	.	.	.	8r	.	.
16r	.	16r	.	.	.	.	.	.
=140	=140	=140	=140	=140	=140	=140	=140	=140
8r	.	4r	.	(8gL	.	(8b-L	.	I]
(8E-	<	.	.	8e-J	<	8gJ	<	.
8GL	>	8r	.	8b-L	>	8ee-L	>	I6
8A-J	] ]]	8ee-	.	8a-J	] ]]	8ccJ	] ]]	IV
=141	=141	=141	=141	=141	=141	=141	=141	=141
8B-L	.	(8ee-L	.	8gL	.	8b-L	.	V(64)
8BB-J)	.	8b-J	.	8e-J	.	8gJ	.	.
8BB-L	.	8a-L	.	8dL	.	8fL	.	V7
8BB-J	.	8fJ)	.	8b-J)	.	8dJ)	.	.
=142	=142	=142	=142	=142	=142	=142	=142	=142
!LO:TX:b:i:t=cresc.	!	!LO:TX:b:i:t=cresc.	!	!LO:TX:b:i:t=cresc.	!	!	!	!
(8E-L	.	(8gL	.	(8b-L	.	4r	.	I\\
8e-J	.	8e-J	.	8gJ	.	.	.	.
8GL	.	8b-L	.	8ee-L	.	8r	.	.
!	!	!	!	!	!	!LO:TX:a:i:t=cresc.	!	!
8A-J	.	8a-J	.	8ccJ	.	(8ccc	.	IV
=143	=143	=143	=143	=143	=143	=143	=143	=143
8E-L	.	8gL	.	8b-L	.	8bb-L	.	I
8e-J	.	8e-J	.	8gJ	.	8ggJ	.	.
8GL	.	8b-L	.	8ee-L	.	8eee-L	.	I6
8A-J)	.	8a-J	.	8ccJ)	.	8cccJ)	.	IV
=144	=144	=144	=144	=144	=144	=144	=144	=144
2r	.	(4.ee-)	p	4r	.	(8bb-L	p	I
.	.	.	.	.	.	8ggJ	.	.
.	.	.	.	8r	.	8ffL	.	.
.	.	8dd)	.	(8B-	p	8bb-J)	.	V6
=145	=145	=145	=145	=145	=145	=145	=145	=145
4r	.	(8dd-L	.	4.e-	.	(8bb-L	.	V2/iv
.	.	16b-L	.	.	.	8ggJ	.	vi
.	.	16cc-XJJ	.	.	.	.	.	.
8r	p	8dd-L	.	.	.	8eeXL	.	viio7/iv
(8EE-	.	8b-J)	.	8d-)	.	8ggJ	.	V7/iv
=146	=146	=146	=146	=146	=146	=146	=146	=146
!LO:TX:b:i:t=cresc.	!	!LO:TX:a:i:t=cresc.	!	!LO:TX:a:i:t=cresc.	!	!	!	!
(4.E-)	.	(8cc-XL	.	8c-XL	.	8aa-'L)	.	iv64
.	.	16a-L	.	(16c-L	.	8A-J	.	.
.	.	16b-JJ	.	16d-JJ	.	.	.	.
.	.	16cc-LL	.	16e-LL	.	8r	.	.
.	.	16a-)	.	16c-	.	.	.	.
!	!	!	!	!	!	!LO:TX:b:i:t=cresc.	!	!
8D)	.	16a-	.	16B-	.	(8bb-	.	II65/iv
.	.	16a-JJ	.	16fJJ)	.	.	.	.
=147	=147	=147	=147	=147	=147	=147	=147	=147
(8D-L	.	(16a-LL	.	8B-L	.	(4.fff-X)	.	viio43/iv
.	.	16g	.	.	.	.	.	.
16BB-L	.	16b-	.	(16dd-L	.	.	.	.
16C-XJJ	.	16a-JJ)	.	16cc-XJJ	.	.	.	.
8D-L	.	(8gL	.	8b-L	.	.	.	.
8C-J)	.	8a-J)	.	8cc-J)	.	8eee-)	.	iv6
=148	=148	=148	=148	=148	=148	=148	=148	=148
(8BB-L	.	(8B-L	.	(8ffL	.	(8dddL	.	V
16GGL	.	16d-L	.	8ff-XJ	.	16bb-L	.	iiio7
16AA-JJ	.	16c-XJJ	.	.	.	16ccc-XJJ	.	.
8BB-L	.	8B-L	.	8gL	.	8ddd-L	.	iiio6
8AA-J)	.	8c-J)	.	8a-J)	.	8ccc-J)	.	iv-ii/.bIII
=149	=149	=149	=149	=149	=149	=149	=149	=149
!	!	!	!LO:DY:a	!	!	!	!	!
2DD-	f	(4.a-	f f	(8ffL	.	(4.ccc-X	f	V7/.bIII
.	.	.	.	16aa-L	.	.	.	.
.	.	.	.	16gg-JJ	.	.	.	.
.	.	.	.	8ffL	.	.	.	.
.	.	8g-)	.	8gg-J)	.	8bb-)	.	.bIII64
=150	=150	=150	=150	=150	=150	=150	=150	=150
!LO:TX:b:i:t=dim.	!	!LO:TX:a:i:t=dim.	!	!LO:TX:b:i:t=dim.	!	!LO:TX:a:i:t=dim.	!	!
2DD-	.	(4.a-	.	(8ffL	.	(4.ccc-X	.	V7/.bIII
.	.	.	.	16aa-L	.	.	.	.
.	.	.	.	16gg-JJ	.	.	.	.
.	.	.	.	8ffL	.	.	.	.
.	.	8g-)	.	8gg-J)	.	8bb-)	.	.bIII64
=151	=151	=151	=151	=151	=151	=151	=151	=151
4.DDX	p	(8a-L	p	(8ffL	p	(4.ccc-X	p	viio7
.	.	16fL	.	16aa-L	.	.	.	.
.	.	16gXJJ	.	16ggXJJ	.	.	.	.
.	.	8a-L	.	8ffL	.	.	.	.
(16fLL	.	8ddJ)	.	8aa-J	.	8bb-)	.	V43
16gJJ	.	.	.	.	.	.	.	.
=152	=152	=152	=152	=152	=152	=152	=152	=152
8a-L	.	8ddL	.	8ffL	.	(8ccc-XL	.	viio43
16fL	.	8ffJ	.	8aa-J	.	8bb-J	.	V43
16gJJ	.	.	.	.	.	.	.	.
8a-L	.	8ddL	.	8ffL	.	8ccc-L	.	viio43
16fL	.	8ffJ	.	8aa-J)	.	8bb-J)	.	V43
16gJJ)	.	.	.	.	.	.	.	.
=153	=153	=153	=153	=153	=153	=153	=153	=153
2a-	.	8B-	.	2dd 2ff	.	(8ccc-XL	.	V[V7(b9)
.	.	8r	.	.	.	8bb-J	.	V7
.	.	4r	.	.	.	8dddL	.	.
.	.	.	.	.	.	8bb-J	.	.
=154	=154	=154	=154	=154	=154	=154	=154	=154
(4.g	.	4B-	.	(4ee-	.	8ccc-XL	.	I(b6)
.	.	.	.	.	.	8bb-J	.	I
.	.	4r	.	8b-L	.	8eee-L	.	.
8ee-)	.	.	.	8gJ)	.	8bb-J	.	.
=155	=155	=155	=155	=155	=155	=155	=155	=155
(4dd	.	4B-	.	(4f	.	8aa-L	.	V43
.	.	.	.	.	.	8bb-J	.	.
4ee-T)	.	4B-	.	4e-)	.	8ggL	.	I
.	.	.	.	.	.	8bb-J)	.	.
=156	=156	=156	=156	=156	=156	=156	=156	=156
(8ggL	.	4B-	.	4d	.	(8ffL	.	V(6)
[8ffJ)	.	.	.	.	.	8bb-J)	.	V]
(16ffLL]	.	4r	.	4r	.	8bb-L	.	.
32ee-L	.	.	.	.	.	.	.	.
32ddJ)	.	.	.	.	.	.	.	.
16cc'	.	.	.	.	.	8bb-J	.	.
16b-'JJ	.	.	.	.	.	.	.	.
=157	=157	=157	=157	=157	=157	=157	=157	=157
8r	.	(8c-XL	.	(4ff	.	2aa-	.	V7(b9)
8b-	.	8B-J	.	.	.	.	.	.
8r	.	8dL	.	4f)	.	.	.	.
8b-	.	8B-J)	.	.	.	.	.	.
=158	=158	=158	=158	=158	=158	=158	=158	=158
8r	.	(8c-XL	.	(4e-	.	(4.gg	.	I64(b6)
8b-	.	8B-J	.	.	.	.	.	.
8r	.	8e-L	.	8gL)	.	.	.	.
8b-	.	8B-J)	.	(8gJ	.	8eee-)	.	.
=159	=159	=159	=159	=159	=159	=159	=159	=159
8r	.	(8fL	.	8a-L)	.	(4ddd	.	V7
8b-	.	8B-J	.	(8a-J	.	.	.	.
8r	.	8e-L	.	8gL)	.	4eee-T)	.	I64
8b-	.	8B-J)	.	(8gJ	.	.	.	.
=160	=160	=160	=160	=160	=160	=160	=160	=160
8b-	.	(8d	.	8f)	.	(8ggg	.	V(6)
*clefF4	*	*	*	*	*	*	*	*
8BB-	.	8B-)	.	8r	.	[8fff)	.	V
8BB-	.	8B-	.	4r	.	(16fffLL]	.	.
.	.	.	.	.	.	32eee-L	.	.
.	.	.	.	.	.	32dddJJJ)	.	.
(8BB-	.	(8B-	.	.	.	16ccc'LL	.	.
.	.	.	.	.	.	16bb-'JJ	.	.
=161	=161	=161	=161	=161	=161	=161	=161	=161
8C-XL	.	8c-XL	.	2d 2f	.	(4aa-	.	V7(b9)
8BB-J	.	8B-J	.	.	.	.	.	.
8DL	.	8dL	.	.	.	4a-)	.	.
8BB-J	.	8B-J	.	.	.	.	.	.
=162	=162	=162	=162	=162	=162	=162	=162	=162
8C-XL	.	8c-XL	.	4e- 4g	.	(4.g	.	I
8BB-J	.	8B-J	.	.	.	.	.	.
8E-L	.	8e-L	.	4B- 4g	.	.	.	.
8EE-J)	.	8E-J)	.	.	.	8ee-)	.	.
=163	=163	=163	=163	=163	=163	=163	=163	=163
!LO:TX:b:i:t=cresc.	!	!LO:TX:a:i:t=cresc.	!	!LO:TX:b:i:t=cresc.	!	!LO:TX:b:i:t=cresc.	!	!
(8BB-L	.	(8B-L	.	4c 4e-	.	(4.cc	.	IV
8AA-J	.	8A-J	.	.	.	.	.	.
8A-L	.	8a-L	.	4cc 4aa-	.	.	.	.
8AA-J)	.	8A-J)	.	.	.	8ccc)	.	.
=164	=164	=164	=164	=164	=164	=164	=164	=164
(8BB-L	.	(8B-L	.	4cc 4aa-	.	(4ff	.	ii6
8AA-J	.	8A-J	.	.	.	.	.	.
8C-XL	.	8c-XL	.	4cc-X	.	4aaa-)	.	iio
8FFJ)	.	8FJ)	.	.	.	.	.	.
=165	=165	=165	=165	=165	=165	=165	=165	=165
(8BB-L	f	(8DL	.	(8aa-L	f	[2aaa-	f	V7
8DJ	.	8FJ	f	8ffJ	.	.	.	.
8FL	.	8B-L	.	8ddL	.	.	.	.
8B-J)	.	8dJ)	.	8a-J)	.	.	.	.
=166	=166	=166	=166	=166	=166	=166	=166	=166
(8BB-L	>	(8E-L	>	(8ggL	>	(16aaa-LL]	>	I
.	.	.	.	.	.	16ggg	.	.
8E-J	.	8GJ	.	8ee-J	.	16ddd	.	.
.	.	.	.	.	.	16eee-JJ	.	.
8GL	.	8B-L	.	8b-L	.	16aaXLL	.	.
.	.	.	.	.	.	16bb-)	.	.
8B-J)	]]	8e-J)	]]	8gJ)	]]	16aa-'	.	.
.	.	.	.	.	.	16gg'JJ	]]	.
=167	=167	=167	=167	=167	=167	=167	=167	=167
(8BB-L	p	(8AXL	p	(8ccL	p	(8ff	p	V[V/V
8AXJ	.	8ccJ	.	8g-J	.	4ee-	.	vii7/V
8BB-L	.	8fL	.	8cc-XL)	.	.	.	.
8A-J)	.	8FJ)	.	8cc-'J	.	8dd)	.	V7
=168	=168	=168	=168	=168	=168	=168	=168	=168
(8BB-L	f	(8DL	f	(8a-L	f	[2aa-	f	.
8DJ	.	8FJ	.	8fJ	.	.	.	.
8FL	.	8B-L	.	8dL	.	.	.	.
8B-J)	.	8dJ)	.	8A-J)	.	.	.	.
=169	=169	=169	=169	=169	=169	=169	=169	=169
(8BB-L	>	(8E-L	>	(8gXL	>	(16aa-LL]	>	I
.	.	.	.	.	.	16gg	.	.
8E-J	.	8GJ	.	8e-J	.	16dd	.	.
.	.	.	.	.	.	16ee-JJ	.	.
8GL	.	8B-L	.	8B-L	.	16aXLL	.	.
.	.	.	.	.	.	16b-)	.	.
8B-J)	]]	8GJ)	]]	8e-J)	]]	16a-'	.	.
.	.	.	.	.	.	16g'JJ	]]	.
=170	=170	=170	=170	=170	=170	=170	=170	=170
(8BB-L	p	(8GL	p	(8B-L	p	(8f	p	I(9)
8GJ	.	8B-J	.	8e-J	.	4e-	.	#viio/V
8BB-L	.	8G-L	.	8AXL	.	.	.	.
8G-J)	.	8AXJ)	.	8e-J)	.	16b-LL	.	.
.	.	.	.	.	.	16ccJJ)	.	.
=171	=171	=171	=171	=171	=171	=171	=171	=171
(8BB-L	.	(8FL	.	(8A-L	.	(16ccKL	.	V7(9)
.	.	.	.	.	.	8f)	.	.
8FJ	.	8A-J	.	8e-J	.	.	.	.
.	.	.	.	.	.	16b-'Jk	.	.
8BB-L	.	8FL	.	8A-L	.	(16b-KL	.	V7]
.	.	.	.	.	.	8aX)	.	.
8FJ)	.	8A-J)	.	8dJ)	.	.	.	.
.	.	.	.	.	.	16b-'Jk	.	.
=172	=172	=172	=172	=172	=172	=172	=172	=172
!LO:TX:a:i:t=cresc.	!	!LO:TX:b:i:t=cresc.	!	!	!	!LO:TX:a:i:t=cresc.	!	!
2D-	.	(8A-L	.	4r	.	(4b-	.	V2(4)/IV
.	.	8GXJ	.	.	.	.	.	.
!	!	!	!	!LO:TX:b:i:t=cresc.	!	!	!	!
.	.	8e-L	.	(8gL	.	[4ee-)	.	V2/IV
.	.	8GJ)	.	8b-J)	.	.	.	.
=173	=173	=173	=173	=173	=173	=173	=173	=173
4.C	.	(8B-L	.	4r	.	4ee-]	.	IV6
.	.	8A-J	.	.	.	.	.	.
.	.	8e-L	>	(8a-L	>	4ee-	>]	.Ger6
8C-X	>]	8AXJ)	]]	8g-J)	]]	.	.	.
=174	=174	=174	=174	=174	=174	=174	=174	=174
[2BB-	p	(8e-L	p	(8g-L	p	(8ee-L	p	v(64)
.	.	8B-J	.	8gXJ)	.	8ggtJ	.	V(64)
.	.	.	.	.	.	16qqff/LL	.	.
.	.	.	.	.	.	16qqgg/JJ	.	.
.	.	8e-L	.	(8gL	.	8bb-L	.	.
.	.	8B-J)	.	8e-J)	.	8aaXJ	.	.
=175	=175	=175	=175	=175	=175	=175	=175	=175
4BB-]	.	(8fL	.	(8a-L	.	8ccc	.	V7
.	.	8dJ	.	8fJ	.	4bb-	.	.
4BB-	.	8fL	.	8a-L	.	.	.	.
.	.	8dJ)	.	8fJ)	.	8aa-)	.	.
=176	=176	=176	=176	=176	=176	=176	=176	=176
!LO:TX:b:i:t=cresc.	!	!LO:TX:b:i:t=cresc.	!	!LO:TX:b:i:t=cresc.	!	!LO:TX:a:i:t=cresc.	!	!
(4DD-	.	(8eXL	.	(8a-L	.	(8aa-L	.	vii2(4)/iii
.	.	8B-J	.	8eXJ	.	8ggJ	.	vii2/iii
4D-)	.	8e-L	.	8gL	.	8eee-L	.	V2/IV
.	.	8B-J)	.	8e-J)	.	8ggJ)	.	.
=177	=177	=177	=177	=177	=177	=177	=177	=177
4.C	>	(8e-L	.	(8a-L	.	(8bb-L	.	IV6
.	.	8A-J	.	8e-J	.	8aa-J	.	.
.	.	8e-L)	>	8a-L	>	8eee-L	>	.
8C-X	]]	8e-J	]]	8g-J)	]]	8aaXJ)	]]	.Ger6
=178	=178	=178	=178	=178	=178	=178	=178	=178
[2BB-	p	8e-L	p	(8g-L	p	(8cccL	p	v(64)
.	.	(8e-J	.	8gXJ	.	8bb-J	.	V(64)
.	.	8gL	.	8b-L	.	8eee-L	.	.
.	.	8e-J)	.	8gJ)	.	8bb-J)	.	.
=179	=179	=179	=179	=179	=179	=179	=179	=179
2BB-]	.	(8b-L	.	(8ee-L	.	(8gggL	.	.
.	.	8gJ	.	8b-J	.	8eee-J	.	.
.	.	8e-L	.	8ee-L	.	8gggL	.	.
.	.	8B-J)	.	8b-J)	.	8eee-J)	.	.
=180	=180	=180	=180	=180	=180	=180	=180	=180
(8E-L	.	(8GL	.	[2ee- [2gg	.	[4bbb-	.	.
8BB-J	.	8E-J	.	.	.	.	.	.
8E-L	.	8GL	.	.	.	24bbb-LL]	.	.
.	.	.	.	.	.	24ggg	.	.
.	.	.	.	.	.	24eee-	.	.
8BB-J)	.	8E-J)	.	.	.	24bb-	.	.
.	.	.	.	.	.	24gg	.	.
.	.	.	.	.	.	24ee-JJ	.	.
=181	=181	=181	=181	=181	=181	=181	=181	=181
(8GL	.	(8B-L	.	12.ee-L] 12.gg]	.	24b-LL	.	.
.	.	.	.	.	.	24g	.	.
.	.	.	.	.	.	24e-	.	.
8E-J	.	8GJ	.	24bb-L	.	24B-	.	.
.	.	.	.	24gg	.	24e-	.	.
.	.	.	.	24ee-JJ	.	24gJJ	.	.
8GL	.	8B-L	.	24b-LL	.	24b-LL	.	.
.	.	.	.	24g	.	24ee-	.	.
.	.	.	.	24e-	.	24gg	.	.
8E-J)	.	8GJ)	.	24B-	.	24bb-	.	.
.	.	.	.	24B-	.	24bb-	.	.
.	.	.	.	24B-JJ	.	24bb-JJ	.	.
=182	=182	=182	=182	=182	=182	=182	=182	=182
!	!	!	!	!LO:TX:a:i:t=cresc.	!	!LO:TX:b:i:t=cresc.	!	!
2r	.	4r	.	(8c-XL	.	(2aa-T	.	V7(b9)
.	.	.	.	8B-J	.	.	.	.
!	!	!LO:TX:b:i:t=cresc.	!	!	!	!	!	!
.	.	(8c-XL	.	8fL	.	.	.	.
.	.	8B-J	.	8dJ	.	.	.	.
=183	=183	=183	=183	=183	=183	=183	=183	=183
!LO:TX:b:i:t=cresc.	!	!	!	!	!	!	!	!
(8C-XL	.	8fL	.	8ddL	.	4.aa-)	.	.
8BB-J	.	8dJ	.	8fJ	.	.	.	.
8B-L	.	8ddL	.	8ffL	.	.	.	.
8B-J)	.	8fJ)	.	8ddJ)	.	(16ffLL	.	.
.	.	.	.	.	.	16bb-JJ)	.	.
=184	=184	=184	=184	=184	=184	=184	=184	=184
8E-	p	8.g	p	8.ee-	p	8.bb-	p	I
8r	.	.	.	.	.	.	.	.
.	.	16r	.	16r	.	16r	.	.
!	!	!LO:TX:b:i:t=espress.	!	!LO:TX:b:i:t=espress.	!	!LO:TX:a:i:t=espress.	!	!
4r	.	8.g-	.	8.ee-	.	8.aaX	.	viio2/V
.	.	16r	.	16r	.	16r	.	.
=185	=185	=185	=185	=185	=185	=185	=185	=185
(2c-X	.	8f	.	8dd	.	8aa-	.	viio2
.	.	8r	.	8r	.	8r	.	.
.	.	4r	.	4r	.	4r	.	.
=186	=186	=186	=186	=186	=186	=186	=186	=186
!LO:TX:b:i:t=espress.	!	!	!	!	!	!	!	!
8E-)	.	8.GX	.	8.e-	.	8.b-	.	I
8r	.	.	.	.	.	.	.	.
.	.	16r	.	16r	.	16r	.	.
4r	.	8.G-	.	8.e-	.	8.aX	.	viio/V
.	.	16r	.	16r	.	16r	.	.
=187	=187	=187	=187	=187	=187	=187	=187	=187
(2C-X	.	[2F	.	[2d	.	[2a-	.	V7(2)
=188	=188	=188	=188	=188	=188	=188	=188	=188
8BB-)	.	8F]	.	8d]	.	8a-]	.	V7
8r	.	8r	.	8r	.	8r	.	.
4r	.	4r	.	4r	.	4r	.	.
=189	=189	=189	=189	=189	=189	=189	=189	=189
8.EE-	.	8.G	.	8.e-	.	8.g	.	I
16r	.	16r	.	16r	.	16r	.	.
4r	.	4r	.	4r	.	4r	.	.
=190	=190	=190	=190	=190	=190	=190	=190	=190
!	!	!	!LO:DY:a	!	!	!	!	!
8.EE-	pp	8.G	pp pp	8.e-	.	8.g	pp	.
16r	.	16r	.	16r	.	16r	.	.
4r	.	4r	.	4r	.	4r	.	.
=191	=191	=191	=191	=191	=191	=191	=191	=191
8.e-	.	2r	.	2r	.	8.ee-	.	I\\
16r	.	.	.	.	.	16r	.	.
4r	.	.	.	.	.	4r	.	.
=192	=192	=192	=192	=192	=192	=192	=192	=192
2c;	.	2g-;	.	2aX;	.	2ee-;	.	#viio65/V
==	==	==	==	==	==	==	==	==
*-	*-	*-	*-	*-	*-	*-	*-	*-
!!!system-decoration: [(s1,s2,s3,s4)]
